X:1
T:Sou Feliz com Jesus
T:Sou Feliz com Jesus
T:It Is Well With My Soul
T:Música: Philip Paul Bliss 
T:Comp: Horatio Gates Spafford 
T:230
T:Hinário Adventista
C:Philip Paul Bliss (1838-1876)
Z:Horatio Gates Spafford (1829-1888)
%%score 1 2 3
L:1/8
M:4/4
K:C
V:1 treble nm="Violino" snm="Vln."
V:2 treble nm="Violino" snm="Vln."
V:3 bass nm="Violoncelo" snm="Vc."
V:1
 G2 G4 F2 | E2 E4 D2 | E2 F2 A2 G2 | F2 E6 | G2 c4 B2 | A2 A4 G2 | ^F2 G6 | G2 c4 c2 | B2 A4 A2 | %9
 A2 d4 d2 | c2 B4 A2 | G2 c4 c2 | c2 c4 B2- | Bc c4 z2 | G2 G2 G4- | G4- G4 | G2 G2 G4- | G4- G4 | %18
 E2 G2 A4 | A2 c2 c4 | B3 c c4- | c2 z2 z4 |] %22
V:2
 E2 E4 D2 | C2 C4 B,2 | C2 B,4 B,2 | D2 C6 | E2 E4 E2 | E2 E4 D2 | D2 D6 | F2 E4 E2 | G2 F4 F2 | %9
 G2 F4 F2 | ^F2 G4 D2 | D2 G4 C2 | D2 E4 D2- | DE E4 z2 | z2 z2 z4 | E2 E2 D4 | z2 z2 z4 | %17
 D2 F2 E4 | C2 E2 F4 | F2 F2 E4 | D3 E E4- | E2 z2 z4 |] %22
V:3
 C,2 C,4 C,2 | C,E, G,4 F,2 | E,2 D,4 G,,2 | B,,2 C,6 | C,2 A,,4 B,,2 | C,2 C,4 D,2 | D,2 G,6 | %7
 G,2 C,4 C,2 | E,2 F,4 F,2 | E,2 D,4 D,2 | D,2 G,4 G,2 | G,F, E,4 E,2 | F,2 G,4 G,,2- | %13
 G,,G,, C,4 z2 | z2 z2 z4 | C,2 E,2 G,4 | z2 z2 z4 | G,2 G,2 C,4 | C,2 C,2 F,4 | F,2 F,2 G,4 | %20
 G,,3 G,, C,4- | C,2 z2 z4 |] %22

